X: 20302
T: DUNBAR'S WALTZ
C:
%R: waltz
B: Elias Howe "The Musician's Companion" 1843 p.30 #2
S: http://imslp.org/wiki/The_Musician's_Companion_(Howe,_Elias)
Z: 2015 John Chambers <jc:trillian.mit.edu>
N: Since initial repeats aren't used, we can't tell whether strains 1+2 should be repeated, or just 2.
M: 3/4
L: 1/8
K: Bb
% - - - - - - - - - - - - - - - - - - - - - - - - -
[|\
(Bcdefg) | (gf)(f=e)f2 | (bf)(dB)(df) | fec4 |\
(Bcdefg) | (gf)(f=e)f2 | (bf)(dB)(df) | c2B2z2 |]
=e/f/g/ |\
f3fdB | (fe)c4 | B4{cBA}Bdfb | abc'bf2 |\
{=efg}f3(fd)B | (fe)c4 | (Bcdef)A | B4"^Fine."z2 :|
(fF)(dF)(BF) | (fF)(dF)(BF) | (cF)(AF)(cA) | (BFDFBd) |\
(fF)(dF)(BF) | (fF)(dF)(BF) | cFAcfa | b4"^D.C."z2 |]
% - - - - - - - - - - - - - - - - - - - - - - - - -

%%sep 1 1 500

